X: 16
T:Stella splendens
C:Livre Vermeil de Montserrat (XIVme sicle)
Z:Transcrit et/ou corrig par Michel BELLON - 2005-03-27
Z:Pour toute observation mailto:galouvielle@free.fr
M:2/2
%%continueall 1
L:1/4
Q:1/4=110
K:G
V:1
ee/2d/2 ec| Ac d2|=f/2e/2c/2d/2 BA|cd d/2c/2 A|G4|ee/2d/2 ec| Ac d2|=f/2e/2c/2d/2 BA|cd d/2c/2 A/2B/4G/4|A2 zA|
